src/images/icons/icon-magnifying-glass.svg

<svg xmlns="http://www.w3.org/2000/svg" width="48" height="48" viewBox="0 0 48 48">
  <g fill="none" fill-rule="evenodd" transform="translate(-48)">
    <path fill="#855CEA" d="M47.7276,23.3242 C47.7196,23.3182 47.7156,23.3022 47.7076,23.2922 L24.7076,0.2922 C24.3256,-0.0918 23.6776,-0.0918 23.2936,0.2922 L0.2936,23.2922 C-0.0664,23.6542 -0.1204,24.2522 0.2716,24.6762 C0.7256,25.1282 1.3376,25.0622 1.6936,24.7142 C1.6976,24.7122 1.7036,24.7102 1.7076,24.7062 L24.0016,2.4122 L46.2936,24.7062 C46.2976,24.7102 46.3016,24.7122 46.3056,24.7142 C46.6876,25.0842 47.3156,25.0842 47.6936,24.7142 C47.6976,24.7122 47.7036,24.7102 47.7076,24.7062 C48.0716,24.3442 48.1196,23.7402 47.7276,23.3242" transform="translate(0 1)"/>
    <path fill="#F52D2D" d="M18.0000915,4.00002033 C25.7181307,4.00002033 32.0001627,10.2800523 32.0001627,18.0000915 C32.0001627,25.7181307 25.7181307,32.0001627 18.0000915,32.0001627 C10.2800523,32.0001627 4.00002033,25.7181307 4.00002033,18.0000915 C4.00002033,10.2800523 10.2800523,4.00002033 18.0000915,4.00002033 M18.0000915,36.000183 C22.2621132,36.000183 26.1781331,34.5021754 29.2661488,32.0161627 L44.5822266,47.412241 C45.3602306,48.194245 46.624237,48.198245 47.410241,47.416241 C48.194245,46.6382371 48.196245,45.3722306 47.418241,44.5882267 L32.0821631,29.1761483 C34.5281755,26.1041327 36.000183,22.222113 36.000183,18.0000915 C36.000183,8.07404104 27.926142,0 18.0000915,0 C8.07404104,0 0,8.07404104 0,18.0000915 C0,27.9241419 8.07404104,36.000183 18.0000915,36.000183" transform="translate(48)"/>
  </g>
</svg>

<svg xmlns="http://www.w3.org/2000/svg" width="48" height="48"><g fill="none" fill-rule="evenodd"><path fill="#855CEA" d="M-.272 24.324c-.008-.006-.012-.022-.02-.032l-23-23a1.012 1.012 0 0 0-1.414 0l-23 23a.989.989 0 0 0-.022 1.384c.454.452 1.066.386 1.422.038.004-.002.01-.004.014-.008l22.294-22.294 22.292 22.294c.004.004.008.006.012.008.382.37 1.01.37 1.388 0 .004-.002.01-.004.014-.008a.983.983 0 0 0 .02-1.382"/><path fill="#F52D2D" d="M18 4c7.718 0 14 6.28 14 14 0 7.718-6.282 14-14 14-7.72 0-14-6.282-14-14 0-7.72 6.28-14 14-14m0 32a17.91 17.91 0 0 0 11.266-3.984l15.316 15.396a1.998 1.998 0 0 0 2.828.004 2 2 0 0 0 .008-2.828L32.082 29.176A17.887 17.887 0 0 0 36 18c0-9.926-8.074-18-18-18S0 8.074 0 18c0 9.924 8.074 18 18 18"/></g></svg>
